public/images/icon-2.svg

<svg fill="none" height="32" viewBox="0 0 32 32" width="32" xmlns="http://www.w3.org/2000/svg"><g fill="#5e6b7e"><path d="m13.3197 3.05027c.2866-.05992.4985-.30852.4985-.60141v-1.990333c0-.242493-.2142-.4295789-.4534-.3897573-1.5196.2529773-2.9668.7210803-4.30974 1.3721203-.2024.09812-.32779.30502-.32779.52996v2.26713c0 .3202.35936.51318.63488.35002 1.20825-.71549 2.54095-1.24161 3.95755-1.53773z"/><path clip-rule="evenodd" d="m4.36364 9.74958c0 .09549-.02302.18948-.06577.27492-.88851 1.7747-1.38878 3.7794-1.38878 5.9014 0 4.4477 2.19772 8.3798 5.56171 10.76-.30473-.8504-.4708-1.7672-.4708-2.723 0-3.9397 2.8216-7.2173 6.5455-7.9045v-7.93487c0-.33137.2686-.6.6-.6h1.709c.3314 0 .6.26863.6.6v7.93487c3.7239.6872 6.5455 3.9648 6.5455 7.9045 0 .9558-.1661 1.8726-.4708 2.723 3.364-2.3802 5.5617-6.3123 5.5617-10.76 0-2.6241-.765-5.0688-2.0832-7.12111-.0636-.09909-.0986-.21404-.0986-.33181v-3.38292c0-.3501.4137-.52656.6551-.273 2.7479 2.88628 4.4358 6.79954 4.4358 11.10884 0 8.8775-7.1634 16.0741-16 16.0741-8.83656 0-16.00000319-7.1966-16.00000241-16.0741.00000034-3.9077 1.38795241-7.48963 3.69560241-10.27551.23117-.27908.66804-.10961.66804.25278zm11.63636 19.32782c2.8116 0 5.0909-2.2898 5.0909-5.1145 0-2.8246-2.2793-5.1144-5.0909-5.1144s-5.0909 2.2898-5.0909 5.1144c0 2.8247 2.2793 5.1145 5.0909 5.1145z" fill-rule="evenodd"/><path d="m22.5455 1.64163c0-.23593-.1379-.45091-.3553-.54262-1.1254-.47477-2.3162-.823998-3.555-1.0302417-.2392-.0398217-.4534.1472687-.4534.3897587v1.990333c0 .29289.2119.54149.4986.60142 1.1472.23981 2.2394.63048 3.2551 1.15043.2745.14055.61-.05358.61-.36201z"/></g></svg>

<svg width="32" height="32" viewBox="0 0 32 32" fill="none" xmlns="http://www.w3.org/2000/svg">
<path d="M13.3197 3.05027C13.6063 2.99035 13.8182 2.74175 13.8182 2.44886L13.8182 0.458527C13.8182 0.216034 13.604 0.0289481 13.3648 0.0687697C11.8452 0.321747 10.398 0.78985 9.05506 1.44089C8.85266 1.53901 8.72727 1.74591 8.72727 1.97085L8.72727 4.23798C8.72727 4.55818 9.08663 4.75116 9.36215 4.588C10.5704 3.87251 11.9031 3.34639 13.3197 3.05027Z" fill="#5E6B7E"/>
<path fill-rule="evenodd" clip-rule="evenodd" d="M4.36364 9.74958C4.36364 9.84507 4.34062 9.93906 4.29787 10.0245C3.40936 11.7992 2.90909 13.8039 2.90909 15.9259C2.90909 20.3736 5.10681 24.3057 8.4708 26.6859C8.16607 25.8355 8 24.9187 8 23.9629C8 20.0232 10.8216 16.7456 14.5455 16.0584L14.5455 8.12353C14.5455 7.79216 14.8141 7.52353 15.1455 7.52353L16.8545 7.52353C17.1859 7.52353 17.4545 7.79216 17.4545 8.12353L17.4545 16.0584C21.1784 16.7456 24 20.0232 24 23.9629C24 24.9187 23.8339 25.8355 23.5292 26.6859C26.8932 24.3057 29.0909 20.3736 29.0909 15.9259C29.0909 13.3018 28.3259 10.8571 27.0077 8.80479C26.9441 8.7057 26.9091 8.59075 26.9091 8.47298L26.9091 5.09006C26.9091 4.73996 27.3228 4.5635 27.5642 4.81706C30.3121 7.70334 32 11.6166 32 15.9259C32 24.8034 24.8366 32 16 32C7.16344 32 -3.18555e-06 24.8034 -2.40945e-06 15.9259C-2.06784e-06 12.0182 1.38795 8.43627 3.6956 5.65039C3.92677 5.37131 4.36364 5.54078 4.36364 5.90317L4.36364 9.74958ZM16 29.0774C18.8116 29.0774 21.0909 26.7876 21.0909 23.9629C21.0909 21.1383 18.8116 18.8485 16 18.8485C13.1884 18.8485 10.9091 21.1383 10.9091 23.9629C10.9091 26.7876 13.1884 29.0774 16 29.0774Z" fill="#5E6B7E"/>
<path d="M22.5455 1.64163C22.5455 1.4057 22.4076 1.19072 22.1902 1.09901C21.0648 0.62424 19.874 0.275012 18.6352 0.0687683C18.396 0.0289466 18.1818 0.216037 18.1818 0.458527L18.1818 2.44886C18.1818 2.74175 18.3937 2.99035 18.6804 3.05028C19.8276 3.29009 20.9198 3.68076 21.9355 4.20071C22.21 4.34126 22.5455 4.14713 22.5455 3.8387L22.5455 1.64163Z" fill="#5E6B7E"/>
</svg>
